X: 8
M: C|
L: 1/8
K: A
(3(EFG) |\
|: (3(efg) |\
a2 ((3c'ba) g>af>g | e>fd>e c>dB>c |\
a2 (3(c'ba) g>af>g | e>fd>e c>dB>c |\

